images/logo.svg

<svg width="242" height="46" viewBox="0 0 242 46" fill="none" xmlns="http://www.w3.org/2000/svg">
<path d="M28 18H10V10H20V0H28V18Z" fill="#292984"/>
<path d="M28 28L28 10L36 10L36 20L46 20L46 28L28 28Z" fill="#8F68FC"/>
<path d="M18 28L36 28L36 36L26 36L26 46L18 46L18 28Z" fill="#05D2DD"/>
<path d="M18 18L18 36L10 36L10 26L-4.37114e-07 26L-7.86805e-07 18L18 18Z" fill="#FF961C"/>
<path d="M64.5028 30.0633C63.4275 29.0551 62.8898 27.4421 62.8898 25.2243C62.8898 23.7457 63.1587 22.4687 63.6963 21.3934C64.234 20.3181 64.9733 19.5116 65.9142 18.9739C66.8551 18.4362 67.8632 18.1674 69.073 18.1674C70.4844 18.1674 71.6941 18.5034 72.7022 19.1755V12.3203L76.3315 12.6563V31.273H73.1727L72.9711 30.0633C72.4334 30.5337 71.8285 30.937 71.1565 31.1386C70.4844 31.3402 69.7451 31.4746 68.8042 31.4746C66.9895 31.5419 65.511 31.0042 64.5028 30.0633ZM71.3581 28.5847C71.8285 28.3831 72.2318 28.1142 72.635 27.711V21.8639C71.8957 21.1918 71.022 20.8557 70.0139 20.8557C68.8714 20.8557 68.0649 21.259 67.46 21.9983C66.9223 22.6704 66.5863 23.7457 66.5863 25.2243C66.5863 26.5684 66.8551 27.5094 67.3928 28.047C67.9305 28.5847 68.737 28.8535 69.8123 28.8535C70.4172 28.8535 70.8876 28.7863 71.3581 28.5847Z" fill="#292984"/>
<path d="M80.7673 29.8616C79.4903 28.7191 78.8854 27.0389 78.8854 24.821C78.8854 22.7376 79.4231 21.1246 80.5656 19.9148C81.7082 18.7723 83.3212 18.1674 85.4046 18.1674C87.3537 18.1674 88.8995 18.7051 89.9748 19.7132C91.0501 20.7213 91.5878 22.1327 91.5878 23.8129V26.1652H82.2459C82.4475 27.1733 82.8507 27.8454 83.59 28.2486C84.3293 28.6519 85.4046 28.8535 86.816 28.8535C87.4881 28.8535 88.2274 28.7863 88.8995 28.6519C89.5716 28.5175 90.2436 28.3831 90.7141 28.1814V30.7354C89.5044 31.273 87.9586 31.5419 86.0095 31.5419C83.8589 31.5419 82.0442 31.0042 80.7673 29.8616ZM88.3618 23.8801V23.208C88.3618 21.595 87.4209 20.8557 85.5391 20.8557C84.3293 20.8557 83.5228 21.1246 83.0524 21.595C82.5819 22.0655 82.3131 22.872 82.3131 23.9473H88.3618V23.8801Z" fill="#292984"/>
<path d="M94.8138 21.259H92.9991V18.4362H94.8138V16.4872C94.8138 15.143 95.217 14.0005 95.9563 13.194C96.7628 12.3203 97.8381 11.917 99.3167 11.917C100.392 11.917 101.333 12.1186 102.207 12.4547V14.9414C101.669 14.7398 101.131 14.6726 100.594 14.6726C99.7872 14.6726 99.2495 14.807 98.9807 15.0758C98.6446 15.3446 98.5102 15.8151 98.5102 16.5544V18.4362H100.997L100.661 21.259H98.5774V31.273H94.9482V21.259H94.8138Z" fill="#292984"/>
<path d="M112.758 18.4362H115.984L116.186 19.646C116.791 19.1755 117.396 18.7723 118.068 18.5707C118.74 18.3018 119.479 18.2346 120.42 18.2346C122.369 18.2346 123.848 18.7723 124.789 19.7804C125.797 20.8557 126.267 22.4687 126.267 24.7538C126.267 27.0389 125.73 28.7191 124.654 29.8617C123.579 31.0042 122.1 31.6091 120.151 31.6091C118.673 31.6091 117.463 31.273 116.455 30.6009V37.1874H112.826V18.4362H112.758ZM121.697 27.8454C122.235 27.1733 122.504 26.098 122.504 24.6866C122.504 23.3424 122.235 22.3343 121.764 21.7294C121.227 21.1246 120.42 20.8557 119.345 20.8557C118.202 20.8557 117.261 21.259 116.455 21.9983V27.8454C116.858 28.1814 117.261 28.3831 117.732 28.5847C118.135 28.7191 118.673 28.8535 119.21 28.8535C120.286 28.8535 121.159 28.5175 121.697 27.8454Z" fill="#8F68FC"/>
<path d="M128.754 18.4362H132.114L132.249 19.7804C132.854 19.3771 133.593 19.0411 134.399 18.7723C135.273 18.5034 136.08 18.3018 136.886 18.1674V20.9229C136.08 21.0574 135.273 21.1918 134.399 21.4606C133.526 21.7294 132.786 21.9983 132.316 22.2671V31.2058H128.754V18.4362Z" fill="#8F68FC"/>
<path d="M140.919 21.1246H138.97L139.306 18.4362H144.548V31.273H140.919V21.1246Z" fill="#8F68FC"/>
<path d="M147.707 18.4362H151.067L151.202 19.7132C152.546 18.7051 154.024 18.1674 155.57 18.1674C156.444 18.1674 157.116 18.3018 157.654 18.5706C158.191 18.8395 158.527 19.2427 158.863 19.7804C159.535 19.2427 160.207 18.9067 161.014 18.6379C161.753 18.369 162.694 18.2346 163.635 18.2346C165.114 18.2346 166.189 18.6379 166.928 19.3771C167.668 20.1164 168.004 21.3262 168.004 22.872V31.3402H164.374V23.2752C164.374 22.4687 164.173 21.8639 163.837 21.4606C163.501 21.0574 162.896 20.9229 162.089 20.9229C161.552 20.9229 161.081 21.0574 160.611 21.259C160.14 21.4606 159.737 21.7294 159.401 22.1327C159.468 22.4687 159.535 22.8048 159.535 23.2752V31.4074H156.108V23.3424C156.108 22.5359 155.973 21.9311 155.705 21.5278C155.436 21.1246 154.898 20.9901 154.159 20.9901C153.218 20.9901 152.277 21.4606 151.336 22.4015V31.4746H147.707V18.4362Z" fill="#8F68FC"/>
<path d="M172.305 29.8616C171.028 28.7191 170.423 27.0389 170.423 24.821C170.423 22.7376 170.961 21.1246 172.103 19.9148C173.246 18.7723 174.859 18.1674 176.942 18.1674C178.891 18.1674 180.437 18.7051 181.513 19.7132C182.588 20.7213 183.126 22.1327 183.126 23.8129V26.1652H173.784C173.985 27.1733 174.388 27.8454 175.128 28.2486C175.867 28.6519 176.942 28.8535 178.354 28.8535C179.026 28.8535 179.765 28.7863 180.437 28.6519C181.109 28.5175 181.781 28.3831 182.252 28.1814V30.7354C181.042 31.273 179.496 31.5419 177.547 31.5419C175.397 31.5419 173.582 31.0042 172.305 29.8616ZM179.9 23.8801V23.208C179.9 21.595 178.959 20.8557 177.077 20.8557C175.867 20.8557 175.061 21.1246 174.59 21.595C174.12 22.0655 173.851 22.872 173.851 23.9473H179.9V23.8801Z" fill="#8F68FC"/>
<path d="M194.82 29.8617C193.61 28.7191 193.005 27.0389 193.005 24.8882C193.005 22.6704 193.677 20.9902 194.954 19.9148C196.231 18.7723 197.979 18.2346 200.264 18.2346C201.137 18.2346 201.944 18.3018 202.616 18.4362C203.288 18.5707 203.893 18.7723 204.498 19.0411V21.6622C203.49 21.1918 202.347 20.9902 201.003 20.9902C199.592 20.9902 198.516 21.259 197.844 21.8639C197.172 22.4687 196.769 23.4769 196.769 24.9554C196.769 26.3668 197.105 27.3749 197.777 27.9798C198.449 28.5847 199.524 28.9207 201.003 28.9207C202.347 28.9207 203.49 28.6519 204.565 28.1814V30.8698C203.355 31.4074 201.877 31.6763 200.196 31.6763C197.844 31.5419 196.097 30.937 194.82 29.8617Z" fill="#292984"/>
<path d="M205.573 24.821C205.573 22.6704 206.178 20.9901 207.321 19.8476C208.463 18.7051 210.21 18.1002 212.563 18.1002C214.915 18.1002 216.662 18.7051 217.805 19.8476C218.948 20.9901 219.552 22.6704 219.552 24.821C219.552 29.2568 217.2 31.5419 212.563 31.5419C207.858 31.5419 205.573 29.324 205.573 24.821ZM215.049 27.5766C215.52 27.0389 215.789 26.098 215.789 24.821C215.789 23.5441 215.52 22.6031 215.049 22.0655C214.579 21.5278 213.705 21.259 212.496 21.259C211.353 21.259 210.479 21.5278 210.009 22.0655C209.538 22.6031 209.27 23.5441 209.27 24.821C209.27 26.098 209.538 27.0389 210.009 27.5766C210.479 28.1142 211.353 28.3831 212.496 28.3831C213.705 28.4503 214.512 28.1814 215.049 27.5766Z" fill="#292984"/>
<path d="M221.703 18.4362H225.063L225.198 19.7132C226.542 18.7051 228.021 18.1674 229.566 18.1674C230.44 18.1674 231.112 18.3018 231.65 18.5706C232.188 18.8395 232.524 19.2427 232.86 19.7804C233.532 19.2427 234.204 18.9067 235.01 18.6379C235.75 18.369 236.691 18.2346 237.631 18.2346C239.11 18.2346 240.185 18.6379 240.925 19.3771C241.597 20.1164 242 21.3262 242 22.872V31.3402H238.371V23.2752C238.371 22.4687 238.169 21.8639 237.833 21.4606C237.497 21.0574 236.892 20.9229 236.086 20.9229C235.548 20.9229 235.078 21.0574 234.607 21.259C234.137 21.4606 233.733 21.7294 233.397 22.1327C233.465 22.4687 233.532 22.8048 233.532 23.2752V31.4074H230.104V23.3424C230.104 22.5359 229.97 21.9311 229.701 21.5278C229.432 21.1246 228.894 20.9901 228.155 20.9901C227.214 20.9901 226.273 21.4606 225.332 22.4015V31.4746H221.703V18.4362Z" fill="#292984"/>
<path d="M144.615 12.3875H140.919V16.0839H144.615V12.3875Z" fill="#8F68FC"/>
<path d="M105.097 21.1246H102.879L103.215 18.4362H108.793V31.273H105.164V21.1246H105.097Z" fill="#292984"/>
<path d="M190.115 27.6438H186.419V31.3402H190.115V27.6438Z" fill="#292984"/>
</svg>

<svg width="242" height="46" fill="none" xmlns="http://www.w3.org/2000/svg"><path d="M28 18H10v-8h10V0h8v18z" fill="#292984"/><path d="M28 28V10h8v10h10v8H28z" fill="#8F68FC"/><path d="M18 28h18v8H26v10h-8V28z" fill="#05D2DD"/><path d="M18 18v18h-8V26H0v-8h18z" fill="#FF961C"/><path d="M64.503 30.063c-1.075-1.008-1.613-2.62-1.613-4.839 0-1.478.269-2.755.806-3.83.538-1.076 1.277-1.882 2.218-2.42.941-.538 1.95-.807 3.159-.807 1.411 0 2.621.336 3.63 1.008V12.32l3.629.336v18.617h-3.16l-.2-1.21c-.539.47-1.143.874-1.816 1.076a7.922 7.922 0 01-2.352.336c-1.814.067-3.293-.47-4.301-1.412zm6.855-1.478a3.94 3.94 0 001.277-.874v-5.847a3.768 3.768 0 00-2.621-1.008c-1.143 0-1.95.403-2.554 1.142-.538.672-.874 1.748-.874 3.226 0 1.344.27 2.285.807 2.823.537.538 1.344.806 2.42.806.604 0 1.075-.067 1.545-.268zM80.767 29.862c-1.277-1.143-1.882-2.823-1.882-5.041 0-2.083.538-3.696 1.68-4.906 1.143-1.143 2.756-1.748 4.84-1.748 1.949 0 3.495.538 4.57 1.546 1.075 1.008 1.613 2.42 1.613 4.1v2.352h-9.342c.202 1.008.605 1.68 1.344 2.084.74.403 1.815.605 3.226.605.672 0 1.411-.068 2.084-.202.672-.135 1.344-.269 1.814-.47v2.553c-1.21.538-2.755.807-4.704.807-2.151 0-3.966-.538-5.243-1.68zm7.595-5.982v-.672c0-1.613-.941-2.352-2.823-2.352-1.21 0-2.016.269-2.487.739-.47.47-.739 1.277-.739 2.352h6.049v-.067zM94.814 21.259h-1.815v-2.823h1.815v-1.949c0-1.344.403-2.486 1.142-3.293.807-.874 1.882-1.277 3.36-1.277 1.076 0 2.017.202 2.891.538v2.486a4.522 4.522 0 00-1.613-.268c-.807 0-1.344.134-1.613.403-.336.269-.47.74-.47 1.478v1.882h2.486l-.336 2.823h-2.084v10.014h-3.629V21.259h-.134z" fill="#292984"/><path d="M112.758 18.436h3.226l.202 1.21c.605-.47 1.21-.874 1.882-1.075.672-.27 1.411-.336 2.352-.336 1.949 0 3.428.537 4.369 1.545 1.008 1.076 1.478 2.689 1.478 4.974s-.537 3.965-1.613 5.108c-1.075 1.142-2.554 1.747-4.503 1.747-1.478 0-2.688-.336-3.696-1.008v6.586h-3.629v-18.75h-.068zm8.939 9.41c.538-.673.807-1.748.807-3.16 0-1.344-.269-2.352-.74-2.957-.537-.604-1.344-.873-2.419-.873-1.143 0-2.084.403-2.89 1.142v5.847c.403.336.806.538 1.277.74.403.134.941.268 1.478.268 1.076 0 1.949-.336 2.487-1.008zM128.754 18.436h3.36l.135 1.344c.605-.403 1.344-.739 2.15-1.008.874-.269 1.681-.47 2.487-.605v2.756c-.806.134-1.613.269-2.487.538-.873.268-1.613.537-2.083.806v8.939h-3.562v-12.77zM140.919 21.125h-1.949l.336-2.689h5.242v12.837h-3.629V21.125zM147.707 18.436h3.36l.135 1.277c1.344-1.008 2.822-1.546 4.368-1.546.874 0 1.546.135 2.084.404.537.268.873.672 1.209 1.21.672-.538 1.344-.874 2.151-1.143.739-.269 1.68-.403 2.621-.403 1.479 0 2.554.403 3.293 1.142.74.74 1.076 1.95 1.076 3.495v8.468h-3.63v-8.065c0-.806-.201-1.411-.537-1.814-.336-.404-.941-.538-1.748-.538-.537 0-1.008.134-1.478.336-.471.202-.874.47-1.21.874.067.336.134.672.134 1.142v8.132h-3.427v-8.065c0-.806-.135-1.41-.403-1.814-.269-.403-.807-.538-1.546-.538-.941 0-1.882.47-2.823 1.412v9.073h-3.629V18.436zM172.305 29.862c-1.277-1.143-1.882-2.823-1.882-5.041 0-2.083.538-3.696 1.68-4.906 1.143-1.143 2.756-1.748 4.839-1.748 1.949 0 3.495.538 4.571 1.546 1.075 1.008 1.613 2.42 1.613 4.1v2.352h-9.342c.201 1.008.604 1.68 1.344 2.084.739.403 1.814.605 3.226.605.672 0 1.411-.068 2.083-.202.672-.135 1.344-.269 1.815-.47v2.553c-1.21.538-2.756.807-4.705.807-2.15 0-3.965-.538-5.242-1.68zm7.595-5.982v-.672c0-1.613-.941-2.352-2.823-2.352-1.21 0-2.016.269-2.487.739-.47.47-.739 1.277-.739 2.352h6.049v-.067z" fill="#8F68FC"/><path d="M194.82 29.862c-1.21-1.143-1.815-2.823-1.815-4.974 0-2.218.672-3.898 1.949-4.973 1.277-1.143 3.025-1.68 5.31-1.68.873 0 1.68.067 2.352.201a8.807 8.807 0 011.882.605v2.621c-1.008-.47-2.151-.672-3.495-.672-1.411 0-2.487.269-3.159.874-.672.605-1.075 1.613-1.075 3.091 0 1.412.336 2.42 1.008 3.025.672.605 1.747.94 3.226.94a8.647 8.647 0 003.562-.739v2.689c-1.21.537-2.688.806-4.369.806-2.352-.134-4.099-.739-5.376-1.814zM205.573 24.821c0-2.15.605-3.83 1.748-4.973 1.142-1.143 2.889-1.748 5.242-1.748 2.352 0 4.099.605 5.242 1.748 1.143 1.142 1.747 2.822 1.747 4.973 0 4.436-2.352 6.72-6.989 6.72-4.705 0-6.99-2.217-6.99-6.72zm9.476 2.756c.471-.538.74-1.479.74-2.756 0-1.277-.269-2.218-.74-2.756-.47-.537-1.344-.806-2.553-.806-1.143 0-2.017.269-2.487.806-.471.538-.739 1.48-.739 2.756 0 1.277.268 2.218.739 2.756.47.537 1.344.806 2.487.806 1.209.067 2.016-.202 2.553-.806zM221.703 18.436h3.36l.135 1.277c1.344-1.008 2.823-1.546 4.368-1.546.874 0 1.546.135 2.084.404.538.268.874.672 1.21 1.21.672-.538 1.344-.874 2.15-1.143.74-.269 1.681-.403 2.621-.403 1.479 0 2.554.403 3.294 1.142.672.74 1.075 1.95 1.075 3.495v8.468h-3.629v-8.065c0-.806-.202-1.411-.538-1.814-.336-.404-.941-.538-1.747-.538-.538 0-1.008.134-1.479.336-.47.202-.874.47-1.21.874.068.336.135.672.135 1.142v8.132h-3.428v-8.065c0-.806-.134-1.41-.403-1.814-.269-.403-.807-.538-1.546-.538-.941 0-1.882.47-2.823 1.412v9.073h-3.629V18.436z" fill="#292984"/><path d="M144.615 12.387h-3.696v3.697h3.696v-3.697z" fill="#8F68FC"/><path d="M105.097 21.125h-2.218l.336-2.689h5.578v12.837h-3.629V21.125h-.067zM190.115 27.644h-3.696v3.696h3.696v-3.696z" fill="#292984"/></svg>
